src/assets/images/prizes/prize5.svg

<svg width="80" height="28" viewBox="0 0 80 28" fill="none" xmlns="http://www.w3.org/2000/svg">
<path d="M35.7538 18.868C35.1578 18.868 34.6017 18.776 34.0897 18.596C33.5777 18.416 33.1376 18.144 32.7696 17.788C32.4016 17.432 32.1136 16.98 31.9056 16.436C31.6976 15.892 31.5936 15.252 31.5936 14.516V14.196C31.5936 13.516 31.7056 12.916 31.9296 12.396C32.1536 11.88 32.4536 11.444 32.8336 11.084C33.2137 10.728 33.6537 10.46 34.1617 10.276C34.6697 10.096 35.1978 10.004 35.7538 10.004C36.3498 10.004 36.8738 10.084 37.3299 10.244C37.7819 10.404 38.1699 10.624 38.4899 10.9C38.8099 11.176 39.0579 11.504 39.242 11.876C39.422 12.248 39.542 12.648 39.594 13.076H37.4339C37.3179 12.68 37.1299 12.372 36.8738 12.14C36.6178 11.912 36.2458 11.796 35.7538 11.796C35.4778 11.796 35.2178 11.844 34.9777 11.94C34.7377 12.036 34.5257 12.184 34.3457 12.38C34.1657 12.576 34.0217 12.824 33.9137 13.124C33.8057 13.424 33.7537 13.78 33.7537 14.196V14.516C33.7537 14.964 33.8057 15.348 33.9057 15.668C34.0057 15.988 34.1497 16.252 34.3297 16.46C34.5097 16.668 34.7257 16.82 34.9697 16.916C35.2138 17.012 35.4738 17.06 35.7538 17.06C36.1818 17.06 36.5378 16.952 36.8338 16.74C37.1259 16.528 37.3259 16.212 37.4339 15.796H39.594C39.542 16.264 39.41 16.688 39.202 17.068C38.9939 17.448 38.7259 17.768 38.3939 18.036C38.0619 18.304 37.6779 18.508 37.2339 18.652C36.7898 18.796 36.2978 18.868 35.7538 18.868Z" fill="black"/>
<path d="M43.9062 18.772C43.4142 18.772 42.9941 18.728 42.6421 18.636C42.2901 18.544 41.9981 18.384 41.7701 18.156C41.5421 17.928 41.3741 17.624 41.2661 17.244C41.1581 16.864 41.1061 16.384 41.1061 15.796V7.488H43.2182V15.56C43.2182 15.828 43.2382 16.052 43.2742 16.232C43.3102 16.412 43.3742 16.56 43.4582 16.672C43.5422 16.784 43.6622 16.864 43.8102 16.912C43.9582 16.96 44.1462 16.984 44.3702 16.984C44.4982 16.984 44.6062 16.98 44.6902 16.976C44.7742 16.972 44.8622 16.964 44.9462 16.952V18.712C44.8822 18.724 44.8102 18.732 44.7302 18.744C44.6502 18.756 44.5662 18.764 44.4742 18.768C44.3822 18.772 44.2902 18.776 44.1942 18.776H43.9062V18.772Z" fill="black"/>
<path d="M47.5184 9.292C47.1223 9.292 46.8103 9.18 46.5823 8.956C46.3543 8.732 46.2383 8.456 46.2383 8.124C46.2383 7.784 46.3543 7.504 46.5823 7.284C46.8103 7.064 47.1223 6.956 47.5184 6.956C47.9144 6.956 48.2224 7.068 48.4544 7.292C48.6824 7.516 48.7984 7.792 48.7984 8.124C48.7984 8.464 48.6824 8.744 48.4544 8.964C48.2264 9.184 47.9144 9.292 47.5184 9.292ZM46.4663 10.204H48.5784V18.676H46.4663V10.204Z" fill="black"/>
<path d="M54.4107 18.868C53.8147 18.868 53.2586 18.776 52.7466 18.596C52.2346 18.416 51.7946 18.144 51.4266 17.788C51.0585 17.432 50.7705 16.98 50.5625 16.436C50.3545 15.892 50.2505 15.252 50.2505 14.516V14.196C50.2505 13.516 50.3625 12.916 50.5865 12.396C50.8105 11.88 51.1105 11.444 51.4906 11.084C51.8706 10.728 52.3106 10.46 52.8186 10.276C53.3267 10.096 53.8547 10.004 54.4107 10.004C55.0067 10.004 55.5308 10.084 55.9868 10.244C56.4388 10.404 56.8268 10.624 57.1469 10.9C57.4669 11.176 57.7149 11.504 57.8989 11.876C58.0789 12.248 58.1989 12.648 58.2509 13.076H56.0908C55.9748 12.68 55.7868 12.372 55.5308 12.14C55.2748 11.912 54.9027 11.796 54.4107 11.796C54.1347 11.796 53.8747 11.844 53.6347 11.94C53.3947 12.036 53.1827 12.184 53.0026 12.38C52.8226 12.576 52.6786 12.824 52.5706 13.124C52.4626 13.424 52.4106 13.78 52.4106 14.196V14.516C52.4106 14.964 52.4626 15.348 52.5626 15.668C52.6626 15.988 52.8066 16.252 52.9866 16.46C53.1667 16.668 53.3827 16.82 53.6267 16.916C53.8707 17.012 54.1307 17.06 54.4107 17.06C54.8387 17.06 55.1947 16.952 55.4908 16.74C55.7828 16.528 55.9828 16.212 56.0908 15.796H58.2509C58.1989 16.264 58.0669 16.688 57.8589 17.068C57.6509 17.448 57.3829 17.768 57.0508 18.036C56.7188 18.304 56.3348 18.508 55.8908 18.652C55.4468 18.796 54.9547 18.868 54.4107 18.868Z" fill="black"/>
<path d="M59.687 18.676V7.488H61.7951V13.672L64.9112 10.204H67.3434L64.1952 13.752L67.6794 18.676H65.1833L62.7551 15.208L61.7951 16.248V18.676H59.687Z" fill="black"/>
<path d="M8.91995 19.0414C5.45802 15.5645 5.49101 12.4024 8.91995 8.95858C12.3489 5.51479 15.4974 5.48166 18.9593 8.95858C22.4212 12.4355 22.3883 15.5976 18.9593 19.0414C17.2413 20.7669 15.5917 21.6355 13.9396 21.6379C12.2947 21.6379 10.6474 20.7763 8.91995 19.0414ZM4.73688 4.7574C1.5931 7.91479 0.00706998 10.9444 0 13.9787V14.0189C0.00706998 17.0414 1.57896 20.071 4.73688 23.2426C7.89481 26.4142 10.9113 27.9929 13.9208 28H13.9608C16.9844 27.9929 19.9986 26.4 23.1424 23.2426C29.43 16.9278 29.4889 11.129 23.1424 4.7574C19.9774 1.5787 16.9538 2.62986e-06 13.9373 2.62986e-06C10.909 -0.00236423 7.88773 1.5929 4.73688 4.7574Z" fill="url(#paint0_linear_2513_3930)"/>
<path d="M70.5595 10.228C69.9315 10.228 69.4555 10.048 69.1355 9.69201C68.8114 9.33601 68.6514 8.78801 68.6514 8.05201V4.74401H69.9875V7.86801C69.9875 8.27201 70.0715 8.57601 70.2355 8.78401C70.3995 8.98801 70.6675 9.09201 71.0395 9.09201C71.2436 9.09201 71.4156 9.06001 71.5596 8.99601C71.7036 8.93201 71.8276 8.84401 71.9236 8.72801C72.0196 8.61201 72.0916 8.48001 72.1356 8.33201C72.1796 8.18401 72.1996 8.02801 72.1996 7.86801V4.74401H73.5357V10.104H72.3036V9.28401C72.1756 9.54001 71.9676 9.76001 71.6756 9.94801C71.3796 10.136 71.0115 10.228 70.5595 10.228Z" fill="url(#paint1_linear_2513_3930)"/>
<path d="M74.7437 4.74801H75.9758V5.56801C76.1238 5.30401 76.3478 5.08401 76.6478 4.90001C76.9478 4.71601 77.3079 4.62801 77.7239 4.62801C78.4519 4.62801 79.0119 4.85201 79.408 5.29601C79.804 5.74001 80 6.40001 80 7.28001V7.48401C80 7.93601 79.944 8.33601 79.84 8.68401C79.732 9.03201 79.58 9.31601 79.38 9.54401C79.1799 9.76801 78.9399 9.94001 78.6639 10.06C78.3839 10.176 78.0719 10.236 77.7279 10.236C77.3719 10.236 77.0518 10.156 76.7678 10C76.4838 9.84001 76.2558 9.62401 76.0798 9.34801V12.14H74.7437V4.74801ZM77.4039 9.10801C77.5799 9.10801 77.7439 9.07201 77.8959 9.00001C78.0479 8.92801 78.1799 8.82801 78.2919 8.69201C78.4039 8.55601 78.4879 8.38801 78.5479 8.18801C78.6079 7.98401 78.6399 7.74801 78.6399 7.48001V7.27601C78.6399 7.02001 78.6119 6.79601 78.5559 6.60801C78.4999 6.42001 78.4159 6.26001 78.3039 6.13201C78.1919 6.00401 78.0599 5.90801 77.9079 5.84401C77.7559 5.78001 77.5879 5.74801 77.4079 5.74801C77.2198 5.74801 77.0438 5.77601 76.8838 5.83201C76.7238 5.88801 76.5838 5.97601 76.4638 6.09601C76.3478 6.21201 76.2518 6.35201 76.1878 6.51601C76.1198 6.67601 76.0878 6.86401 76.0878 7.07201V7.68001C76.0878 7.90401 76.1198 8.10001 76.1878 8.27601C76.2558 8.45201 76.3478 8.60001 76.4638 8.72401C76.5798 8.84801 76.7198 8.94401 76.8838 9.00801C77.0398 9.07601 77.2159 9.10801 77.4039 9.10801Z" fill="url(#paint2_linear_2513_3930)"/>
<defs>
<linearGradient id="paint0_linear_2513_3930" x1="12.8726" y1="23.4413" x2="24.6013" y2="-9.88001" gradientUnits="userSpaceOnUse">
<stop stop-color="#0073FF"/>
<stop offset="1" stop-color="#00DEFF"/>
</linearGradient>
<linearGradient id="paint1_linear_2513_3930" x1="6.81016" y1="27.0838" x2="23.1259" y2="-40.7381" gradientUnits="userSpaceOnUse">
<stop offset="0.1022" stop-color="#0073FF"/>
<stop offset="1" stop-color="#00DEFF"/>
</linearGradient>
<linearGradient id="paint2_linear_2513_3930" x1="72.6744" y1="12.8314" x2="79.4711" y2="4.02447" gradientUnits="userSpaceOnUse">
<stop stop-color="#0073FF"/>
<stop offset="1" stop-color="#00DEFF"/>
</linearGradient>
</defs>
</svg>

<svg width="80" height="28" fill="none" xmlns="http://www.w3.org/2000/svg"><path d="M35.754 18.868a4.99 4.99 0 0 1-1.664-.272 3.586 3.586 0 0 1-1.32-.808c-.368-.356-.656-.808-.864-1.352-.208-.544-.312-1.184-.312-1.92v-.32c0-.68.112-1.28.336-1.8a3.94 3.94 0 0 1 .904-1.312c.38-.356.82-.624 1.328-.808a4.722 4.722 0 0 1 1.592-.272c.596 0 1.12.08 1.576.24.452.16.84.38 1.16.656.32.276.568.604.752.976.18.372.3.772.352 1.2h-2.16c-.116-.396-.304-.704-.56-.936-.256-.228-.628-.344-1.12-.344-.276 0-.536.048-.776.144a1.72 1.72 0 0 0-.632.44c-.18.196-.324.444-.432.744-.108.3-.16.656-.16 1.072v.32c0 .448.052.832.152 1.152.1.32.244.584.424.792.18.208.396.36.64.456.244.096.504.144.784.144.428 0 .784-.108 1.08-.32.292-.212.492-.528.6-.944h2.16a3.406 3.406 0 0 1-.392 1.272c-.208.38-.476.7-.808.968a3.577 3.577 0 0 1-1.16.616 4.775 4.775 0 0 1-1.48.216ZM43.906 18.772c-.492 0-.912-.044-1.264-.136a1.877 1.877 0 0 1-.872-.48c-.228-.228-.396-.532-.504-.912-.108-.38-.16-.86-.16-1.448V7.488h2.112v8.072c0 .268.02.492.056.672.036.18.1.328.184.44a.696.696 0 0 0 .352.24c.148.048.336.072.56.072.128 0 .236-.004.32-.008.084-.004.172-.012.256-.024v1.76c-.064.012-.136.02-.216.032-.08.012-.164.02-.256.024s-.184.008-.28.008h-.288v-.004ZM47.518 9.292c-.396 0-.708-.112-.936-.336a1.12 1.12 0 0 1-.344-.832c0-.34.116-.62.344-.84.228-.22.54-.328.936-.328s.704.112.936.336c.228.224.344.5.344.832 0 .34-.116.62-.344.84-.228.22-.54.328-.936.328Zm-1.052.912h2.112v8.472h-2.112v-8.472ZM54.41 18.868a4.99 4.99 0 0 1-1.663-.272 3.585 3.585 0 0 1-1.32-.808c-.368-.356-.657-.808-.864-1.352-.209-.544-.313-1.184-.313-1.92v-.32c0-.68.112-1.28.337-1.8.223-.516.523-.952.904-1.312.38-.356.82-.624 1.328-.808a4.722 4.722 0 0 1 1.592-.272c.596 0 1.12.08 1.576.24.452.16.84.38 1.16.656.32.276.568.604.752.976.18.372.3.772.352 1.2h-2.16c-.116-.396-.304-.704-.56-.936-.256-.228-.628-.344-1.12-.344-.276 0-.536.048-.776.144-.24.096-.452.244-.632.44s-.324.444-.432.744c-.108.3-.16.656-.16 1.072v.32c0 .448.052.832.152 1.152.1.32.244.584.424.792.18.208.396.36.64.456.244.096.504.144.784.144.428 0 .784-.108 1.08-.32.292-.212.492-.528.6-.944h2.16a3.406 3.406 0 0 1-.392 1.272c-.208.38-.476.7-.808.968a3.577 3.577 0 0 1-1.16.616 4.775 4.775 0 0 1-1.48.216ZM59.687 18.676V7.488h2.108v6.184l3.116-3.468h2.432l-3.148 3.548 3.484 4.924h-2.496l-2.428-3.468-.96 1.04v2.428h-2.108Z" fill="#000"/><path d="M8.92 19.041c-3.462-3.476-3.429-6.639 0-10.082 3.429-3.444 6.577-3.477 10.04 0 3.461 3.476 3.428 6.639 0 10.082-1.719 1.726-3.368 2.595-5.02 2.597-1.645 0-3.293-.862-5.02-2.597ZM4.737 4.757C1.593 7.915.007 10.944 0 13.98v.04c.007 3.022 1.579 6.052 4.737 9.224 3.158 3.171 6.174 4.75 9.184 4.757h.04c3.023-.007 6.038-1.6 9.181-4.757 6.288-6.315 6.347-12.114 0-18.486C19.977 1.58 16.954 0 13.937 0c-3.028-.002-6.05 1.593-9.2 4.757Z" fill="url(#a)"/><path d="M70.56 10.228c-.629 0-1.105-.18-1.425-.536-.324-.356-.484-.904-.484-1.64V4.744h1.337v3.124c0 .404.084.708.248.916.163.204.431.308.803.308.205 0 .377-.032.52-.096a.981.981 0 0 0 .365-.268c.096-.116.168-.248.212-.396.044-.148.064-.304.064-.464V4.744h1.336v5.36h-1.232v-.82c-.128.256-.336.476-.628.664-.296.188-.665.28-1.117.28Z" fill="url(#b)"/><path d="M74.744 4.748h1.232v.82c.148-.264.372-.484.672-.668.3-.184.66-.272 1.076-.272.728 0 1.288.224 1.684.668C79.804 5.74 80 6.4 80 7.28v.204c0 .452-.056.852-.16 1.2-.108.348-.26.632-.46.86-.2.224-.44.396-.716.516-.28.116-.592.176-.936.176-.356 0-.676-.08-.96-.236a1.92 1.92 0 0 1-.688-.652v2.792h-1.336V4.748Zm2.66 4.36a1.135 1.135 0 0 0 .888-.416c.112-.136.196-.304.256-.504.06-.204.092-.44.092-.708v-.204c0-.256-.028-.48-.084-.668a1.26 1.26 0 0 0-.252-.476 1.076 1.076 0 0 0-.396-.288 1.28 1.28 0 0 0-.5-.096c-.188 0-.364.028-.524.084-.16.056-.3.144-.42.264a1.219 1.219 0 0 0-.276.42c-.068.16-.1.348-.1.556v.608c0 .224.032.42.1.596s.16.324.276.448c.116.124.256.22.42.284.156.068.332.1.52.1Z" fill="url(#c)"/><defs><linearGradient id="a" x1="12.873" y1="23.441" x2="24.601" y2="-9.88" gradientUnits="userSpaceOnUse"><stop stop-color="#0073FF"/><stop offset="1" stop-color="#00DEFF"/></linearGradient><linearGradient id="b" x1="6.81" y1="27.084" x2="23.126" y2="-40.738" gradientUnits="userSpaceOnUse"><stop offset=".102" stop-color="#0073FF"/><stop offset="1" stop-color="#00DEFF"/></linearGradient><linearGradient id="c" x1="72.674" y1="12.831" x2="79.471" y2="4.024" gradientUnits="userSpaceOnUse"><stop stop-color="#0073FF"/><stop offset="1" stop-color="#00DEFF"/></linearGradient></defs></svg>
